!!!ONB: MCCC : IBS0042_00 : Extracted Monophonic Melody
!!!COM: Smetana, Bedřich
!!!OTL: On the Seashore (A Memory)
!!!SCT: JB 1:80, B.119, T.86
!!!ODT: 1861///
**kern
*staff1
*clefG2
*k[f#c#g#d#a#]
*B:
*M4/4
32ffff##
32gggg#
32eeee
32dddd#
32bbb
32aaa#
32fff##
32ggg#
32eee
32ddd#
32bb
32aa#
32ff#
32gg#
32ee
32dd#
32b
32a#
32f##
32g#
32e
32d#
32B
32A#
32F##
32G#
32E
32D#
32BB
16AA#
=4
8r
4ee
8dd#
8r
4ff#
8ee#
=5
8r
4gg#
8ff##
8r
4eee
8ddd#
=6
1r
=7
*M2/4
2r
=8
*M4/4
2dd#
4.dd#[
16dd#]
16b
=9
2g#
2r
=10
2dd#
4.ee[
16ee]
16dd#
=11
2.ff#
8r
16r
16a#
=12
2b
4.a#[
16a#]
16b
=13
2g#
2r
=14
2b
4.a#[
16a#]
16b
=15
2ff#
4r
8r
16r
16f#
=16
2a#
4.g#[
16g#]
16cc#
=17
2f#
2r
=18
2cc#
4.b#[
16b#]
16cc#
=19
2gg#
4r
8r
16r
16g#
=20
2b#
4.a#[
16a#]
16cc#
=21
2dd#
4.b[
16b]
16g#
=22
8b
4.a#
2r
=23
2dd#
4.b[
16b]
16g#
=24
8b
4.a#
2r
=25
2dd#
4.ee[
16ee]
16dd#
=26
2gg#
4r
8r
16r
16b
=27
2ff#
4r
8r
16r
16ff#
=28
2ff#
4.dd#[
16dd#]
16b
=29
8dd#
4.cc#
2r
=30
2ff#
4.dd#[
16dd#]
16b
=31
8dd#
4.cc#
2r
=32
2ff#
4.dd[
16dd]
16dd#
=33
2aa#
4r
8r
16r
16a#
=34
2dd
4.b#[
16b#]
16ee#
=35
2a#
2r
=36
2ee#
4.ee[
16ee]
16ee#
=37
2bb#
4r
8r
16r
16b#
=38
2ee
4.dd[
16dd]
16ff##
=39
2fff##
4.eee[
16eee]
16bb#
=40
8eee
4.ddd
2r
=41
2fff##
4.ddd#[
16ddd#]
16bb#
=42
1ggg#
=43
2ggg#
4.eee[
16eee]
16ccc#
=44
8eee
4.ddd#
2r
=45
2ggg#
4.eee[
16eee]
16ccc#
=46
1aaa
=47
2aaa
4.eee#[
16eee#]
16dddd
=48
2aaa#
2r
=49
2aaa#
4.fff#[
16fff#]
16ddd#
=50
4fff#
4eee#
2r
=51
2aaa#
4.fff#[
16fff#]
16ddd#
=52
4fff#
4eee#
2r
=53
2aaa#
4.fff##[
16fff##]
16ddd#
=54
2.cccc#
4r
=55
2cccc#
4.aaa#[
16aaa#]
16fff##
=56
1eeee
=57
32aaa#
32fff#
32ddd#
32ccc#
32aa#
32ff##
32dd#
32cc#
32a#
32f##
32d#
32c#
32A#
32F##
32D#
32C#
24AA#
48F##[
16F##]
24c#
24r
24f##
8cc#
24ff##
24r
24ddd#
=58
2ddd#
4.bb#[
16bb#]
16gg#
=59
4bb#
4aa#
2r
=60
2ddd#
4.bb#[
16bb#]
16gg#
=61
4bb#
4aa#
2r
=62
2ddd#
4.ccc#[
16ccc#]
16bb#
=63
2aa#
4.gg#[
16gg#]
16ff##
=64
2ee#
4.dd#[
16dd#]
16cc##
=65
4dd#
4ee
4.dd#[
16dd#]
16ee#
=66
4ff#
4ff##
4.ff##[
16ff##]
16gg#
=67
4gg#
4aa
4.aa[
16aa]
16aa#
=68
4.aa#
8bb
4.bb[
16bb]
16bb#
=69
2bb#
4.gg#[
16gg#]
16eee#
=70
1eee#
=71
1aaa#
=72
1dddd#
=73
12ccc#
12b#
12ccc#
12dd#
12eee
12a#
12fff#
12ff##
12ddd#
12aa
12aaa#
12ff##
=74
12bbb#
12ccc#
12aaa#
12ff##
12ddd#
12cc#
12aa#
12f##
12dd#
12c#
12a#
12F##
=75
12cc#
12dd#
12ff##
12aa#
12ccc#
12ddd#
12fff##
12aaa#
12cccc#
12dddd#
12eeee#
12ffff##
=76
4gggg#
4r
2r
=77
1r
=78
16bbb#
16eeee#
16dddd#
16gggg#
16bbb
16dddd
16bbb#
16ffff##
16dddd#
16gggg#
16bbb
16dddd
16bbb#
16eeee#
16dddd#
16gggg#
=79
16bbb
16dddd
16bbb#
16eeee#
16dddd#
16gggg#
16bbb
16dddd
16bbb#
16eeee#
16dddd#
16gggg#
16bbb#
16eeee#
16dddd#
16gggg#
=80
4ee
4dd#
4ff#
4ee#
=81
4gg#
4ff##
4eee
4ddd#
=82
1r
=83
1r
=84
1r
=85
2dd#
4.dd#[
16dd#]
16dd#
=86
2dd#
4.b#[
16b#]
16g#
=87
4b#
4r
2r
=88
2ddd#
2bb#
=89
2gg#
2r
=90
1r
=91
4b#
4r
2r
==
*-
